X:119
T:It's a Pity I Can't See My Love
N:"Moderate"
B:O'Neill's 119
Z:Transcribed by henrik.norbeck@mailbox.swipnet.se
M:9/8
L:1/8
K:G
G/A/|B2 B BAGA E2 F|G2 G GB.d e2 e|d2 B ABG E2 G|D2 B TA2 G G2:|
E/F/|G2 G GBd e2 f|gfe B2 d e2 e|d2 B ABG EFG|D2 B TA2 G G2 G|
G2 G GB.d e2 f|gf.e B2 f e2 e|d2 B AB.G EFG|DGB TA2 G G2||
